X:27
M:6/8
L:1/8
K:Bb
|: f/f/ | fg_a def | Gc=B c2 c/c/ | efg cde | FBA B2 B/_A/ | GFE GcB | AGF GAB | cde fdB | ecA B2 :|

